X: 29950
T: O, Were I On Parnassus Hill
R: reel
M: 4/4
K: Aminor
AB|c2 BA E2 AB|c2 BA e2 dc|B2 g2 G3 A|BcdB E2 F^G|
A3 B cB cd|edeg a3 g|e2 dc fedc|{c}B4 A2||
ab|c'2 c'b a3 ^f|a^gab e3 ^f|=gaba g<eg<e|dcBA G2 AB|
c2 BA d2 cB|edge a3 g e2 dc fedc|TrB4 A2||

